public/assets/images/logo_white.svg

<?xml version="1.0" encoding="UTF-8" standalone="no"?><!DOCTYPE svg PUBLIC "-//W3C//DTD SVG 1.1//EN" "http://www.w3.org/Graphics/SVG/1.1/DTD/svg11.dtd"><svg width="100%" height="100%" viewBox="0 0 34 5" version="1.1" xmlns="http://www.w3.org/2000/svg" xmlns:xlink="http://www.w3.org/1999/xlink" xml:space="preserve" style="fill-rule:evenodd;clip-rule:evenodd;stroke-linejoin:round;stroke-miterlimit:1.41421;"><g><path d="M6.222,0.916l0.208,0l0,1.296l1.792,0l0,-1.296l0.208,0l0,2.8l-0.208,0l0,-1.312l-1.792,0l0,1.312l-0.208,0l0,-2.8Z" style="fill:#fff;fill-rule:nonzero;"/><path d="M9.718,3.764c-0.096,0 -0.191,-0.013 -0.284,-0.04c-0.093,-0.027 -0.177,-0.067 -0.252,-0.12c-0.075,-0.053 -0.135,-0.12 -0.182,-0.2c-0.047,-0.08 -0.07,-0.173 -0.07,-0.28l0,-0.008c0,-0.107 0.022,-0.201 0.066,-0.284c0.044,-0.083 0.105,-0.152 0.182,-0.208c0.077,-0.056 0.171,-0.099 0.28,-0.128c0.109,-0.029 0.231,-0.044 0.364,-0.044c0.144,0 0.268,0.008 0.372,0.024c0.104,0.016 0.205,0.037 0.304,0.064l0,-0.088c0,-0.208 -0.059,-0.364 -0.178,-0.468c-0.119,-0.104 -0.283,-0.156 -0.494,-0.156c-0.125,0 -0.24,0.015 -0.344,0.046c-0.104,0.031 -0.203,0.07 -0.296,0.118l-0.072,-0.172c0.112,-0.053 0.225,-0.096 0.34,-0.128c0.115,-0.032 0.243,-0.048 0.384,-0.048c0.28,0 0.495,0.075 0.644,0.224c0.139,0.139 0.208,0.331 0.208,0.576l0,1.272l-0.192,0l0,-0.34c-0.035,0.048 -0.077,0.095 -0.126,0.142c-0.049,0.047 -0.106,0.088 -0.17,0.124c-0.064,0.036 -0.137,0.065 -0.218,0.088c-0.081,0.023 -0.17,0.034 -0.266,0.034Zm0.012,-0.184c0.104,0 0.203,-0.015 0.296,-0.046c0.093,-0.031 0.175,-0.073 0.246,-0.128c0.071,-0.055 0.127,-0.121 0.168,-0.198c0.041,-0.077 0.062,-0.163 0.062,-0.256l0,-0.232c-0.085,-0.021 -0.185,-0.042 -0.3,-0.062c-0.115,-0.02 -0.245,-0.03 -0.392,-0.03c-0.216,0 -0.382,0.043 -0.498,0.13c-0.116,0.087 -0.174,0.202 -0.174,0.346l0,0.008c0,0.075 0.016,0.141 0.048,0.198c0.032,0.057 0.075,0.106 0.13,0.146c0.055,0.04 0.118,0.071 0.19,0.092c0.072,0.021 0.147,0.032 0.224,0.032Z" style="fill:#fff;fill-rule:nonzero;"/><path d="M11.394,1.676l0.196,0l0,0.38c0.069,-0.12 0.163,-0.221 0.28,-0.304c0.117,-0.083 0.269,-0.124 0.456,-0.124c0.128,0 0.243,0.021 0.344,0.062c0.101,0.041 0.187,0.099 0.258,0.174c0.071,0.075 0.124,0.163 0.16,0.266c0.036,0.103 0.054,0.215 0.054,0.338l0,1.248l-0.196,0l0,-1.212c0,-0.211 -0.056,-0.379 -0.168,-0.506c-0.112,-0.127 -0.272,-0.19 -0.48,-0.19c-0.101,0 -0.195,0.018 -0.28,0.054c-0.085,0.036 -0.16,0.086 -0.224,0.15c-0.064,0.064 -0.114,0.141 -0.15,0.23c-0.036,0.089 -0.054,0.187 -0.054,0.294l0,1.18l-0.196,0l0,-2.04Z" style="fill:#fff;fill-rule:nonzero;"/><path d="M14.706,3.764c-0.123,0 -0.243,-0.024 -0.362,-0.072c-0.119,-0.048 -0.225,-0.117 -0.318,-0.208c-0.093,-0.091 -0.169,-0.202 -0.226,-0.334c-0.057,-0.132 -0.086,-0.281 -0.086,-0.446l0,-0.008c0,-0.165 0.029,-0.314 0.086,-0.446c0.057,-0.132 0.133,-0.244 0.226,-0.336c0.093,-0.092 0.199,-0.163 0.318,-0.212c0.119,-0.049 0.239,-0.074 0.362,-0.074c0.101,0 0.195,0.013 0.28,0.04c0.085,0.027 0.162,0.063 0.23,0.108c0.068,0.045 0.129,0.097 0.184,0.156c0.055,0.059 0.103,0.12 0.146,0.184l0,-1.32l0.196,0l0,2.92l-0.196,0l0,-0.456c-0.045,0.067 -0.095,0.131 -0.15,0.192c-0.055,0.061 -0.116,0.115 -0.184,0.16c-0.068,0.045 -0.144,0.082 -0.228,0.11c-0.084,0.028 -0.177,0.042 -0.278,0.042Zm0.02,-0.188c0.107,0 0.21,-0.021 0.31,-0.064c0.1,-0.043 0.189,-0.103 0.266,-0.18c0.077,-0.077 0.139,-0.169 0.186,-0.276c0.047,-0.107 0.07,-0.225 0.07,-0.356l0,-0.008c0,-0.131 -0.023,-0.25 -0.07,-0.358c-0.047,-0.108 -0.109,-0.2 -0.186,-0.276c-0.077,-0.076 -0.166,-0.135 -0.266,-0.178c-0.1,-0.043 -0.203,-0.064 -0.31,-0.064c-0.112,0 -0.217,0.02 -0.314,0.06c-0.097,0.04 -0.182,0.097 -0.254,0.172c-0.072,0.075 -0.129,0.166 -0.17,0.274c-0.041,0.108 -0.062,0.23 -0.062,0.366l0,0.008c0,0.133 0.021,0.255 0.064,0.364c0.043,0.109 0.101,0.202 0.174,0.278c0.073,0.076 0.159,0.135 0.256,0.176c0.097,0.041 0.199,0.062 0.306,0.062Z" style="fill:#fff;fill-rule:nonzero;"/><rect x="16.514" y="0.796" width="0.196" height="2.92" style="fill:#fff;fill-rule:nonzero;"/><path d="M18.342,3.764c-0.133,0 -0.261,-0.025 -0.382,-0.076c-0.121,-0.051 -0.228,-0.123 -0.32,-0.216c-0.092,-0.093 -0.165,-0.205 -0.218,-0.336c-0.053,-0.131 -0.08,-0.276 -0.08,-0.436l0,-0.008c0,-0.147 0.025,-0.285 0.074,-0.414c0.049,-0.129 0.117,-0.242 0.204,-0.338c0.087,-0.096 0.189,-0.172 0.306,-0.228c0.117,-0.056 0.245,-0.084 0.384,-0.084c0.144,0 0.273,0.027 0.388,0.082c0.115,0.055 0.213,0.13 0.294,0.226c0.081,0.096 0.144,0.209 0.188,0.338c0.044,0.129 0.066,0.27 0.066,0.422c0,0.019 0,0.033 0,0.042c0,0.009 -0.001,0.022 -0.004,0.038l-1.692,0c0.008,0.128 0.036,0.241 0.084,0.34c0.048,0.099 0.108,0.183 0.18,0.252c0.072,0.069 0.154,0.122 0.246,0.158c0.092,0.036 0.189,0.054 0.29,0.054c0.16,0 0.295,-0.031 0.406,-0.092c0.111,-0.061 0.209,-0.137 0.294,-0.228l0.136,0.12c-0.104,0.112 -0.222,0.204 -0.354,0.276c-0.132,0.072 -0.295,0.108 -0.49,0.108Zm0.692,-1.164c-0.008,-0.104 -0.029,-0.203 -0.062,-0.298c-0.033,-0.095 -0.08,-0.179 -0.14,-0.252c-0.06,-0.073 -0.134,-0.132 -0.222,-0.176c-0.088,-0.044 -0.191,-0.066 -0.308,-0.066c-0.101,0 -0.196,0.02 -0.284,0.06c-0.088,0.04 -0.165,0.095 -0.23,0.166c-0.065,0.071 -0.119,0.155 -0.162,0.252c-0.043,0.097 -0.068,0.202 -0.076,0.314l1.484,0Z" style="fill:#fff;fill-rule:nonzero;"/><path d="M19.818,1.676l0.196,0l0,0.58c0.04,-0.091 0.091,-0.175 0.152,-0.252c0.061,-0.077 0.131,-0.143 0.208,-0.198c0.077,-0.055 0.162,-0.096 0.254,-0.124c0.092,-0.028 0.189,-0.041 0.29,-0.038l0,0.216l-0.02,0c-0.117,0 -0.229,0.022 -0.336,0.066c-0.107,0.044 -0.201,0.109 -0.282,0.196c-0.081,0.087 -0.146,0.193 -0.194,0.32c-0.048,0.127 -0.072,0.273 -0.072,0.438l0,0.836l-0.196,0l0,-2.04Z" style="fill:#fff;fill-rule:nonzero;"/></g><circle cx="2.319" cy="2.319" r="2.319" style="fill:#fff;"/><path d="M2.318,0.87c-0.045,0 -0.073,0.027 -0.094,0.066c-0.001,0.003 -1.152,2.641 -1.152,2.641c-0.003,0.007 -0.004,0.014 -0.004,0.021c0,0.01 0.002,0.02 0.008,0.029c0.01,0.015 0.026,0.024 0.044,0.024l1.043,0c0.028,0 0.051,-0.023 0.052,-0.051l0.104,-2.611l0.104,2.611c0.001,0.028 0.024,0.051 0.052,0.051l1.043,0c0.018,0 0.034,-0.009 0.044,-0.024c0.006,-0.009 0.008,-0.019 0.008,-0.029c0,-0.007 -0.001,-0.014 -0.004,-0.021l-1.139,-2.612c-0.019,-0.05 -0.054,-0.095 -0.109,-0.095l0,0Z" style="fill-rule:nonzero;"/></svg>

<?xml version="1.0" encoding="UTF-8" standalone="no"?>
<!DOCTYPE svg PUBLIC "-//W3C//DTD SVG 1.1//EN" "http://www.w3.org/Graphics/SVG/1.1/DTD/svg11.dtd">
<svg width="100%" height="100%" viewBox="0 0 34 5" version="1.1" xmlns="http://www.w3.org/2000/svg" xmlns:xlink="http://www.w3.org/1999/xlink" xml:space="preserve" style="fill-rule:evenodd;clip-rule:evenodd;stroke-linejoin:round;stroke-miterlimit:1.41421;">
    <g>
        <path d="M6.222,0.916L6.43,0.916L6.43,2.212L8.222,2.212L8.222,0.916L8.43,0.916L8.43,3.716L8.222,3.716L8.222,2.404L6.43,2.404L6.43,3.716L6.222,3.716L6.222,0.916L6.222,0.916Z" style="fill:white;fill-rule:nonzero;"/>
        <path d="M9.718,3.764C9.622,3.764 9.527,3.751 9.434,3.724C9.341,3.697 9.257,3.657 9.182,3.604C9.107,3.551 9.047,3.484 9,3.404C8.953,3.324 8.93,3.231 8.93,3.124L8.93,3.116C8.93,3.009 8.952,2.915 8.996,2.832C9.04,2.749 9.101,2.68 9.178,2.624C9.255,2.568 9.349,2.525 9.458,2.496C9.567,2.467 9.689,2.452 9.822,2.452C9.966,2.452 10.09,2.46 10.194,2.476C10.298,2.492 10.399,2.513 10.498,2.54L10.498,2.452C10.498,2.244 10.439,2.088 10.32,1.984C10.201,1.88 10.037,1.828 9.826,1.828C9.701,1.828 9.586,1.843 9.482,1.874C9.378,1.905 9.279,1.944 9.186,1.992L9.114,1.82C9.226,1.767 9.339,1.724 9.454,1.692C9.569,1.66 9.697,1.644 9.838,1.644C10.118,1.644 10.333,1.719 10.482,1.868C10.621,2.007 10.69,2.199 10.69,2.444L10.69,3.716L10.498,3.716L10.498,3.376C10.463,3.424 10.421,3.471 10.372,3.518C10.323,3.565 10.266,3.606 10.202,3.642C10.138,3.678 10.065,3.707 9.984,3.73C9.903,3.753 9.814,3.764 9.718,3.764L9.718,3.764ZM9.73,3.58C9.834,3.58 9.933,3.565 10.026,3.534C10.119,3.503 10.201,3.461 10.272,3.406C10.343,3.351 10.399,3.285 10.44,3.208C10.481,3.131 10.502,3.045 10.502,2.952L10.502,2.72C10.417,2.699 10.317,2.678 10.202,2.658C10.087,2.638 9.957,2.628 9.81,2.628C9.594,2.628 9.428,2.671 9.312,2.758C9.196,2.845 9.138,2.96 9.138,3.104L9.138,3.112C9.138,3.187 9.154,3.253 9.186,3.31C9.218,3.367 9.261,3.416 9.316,3.456C9.371,3.496 9.434,3.527 9.506,3.548C9.578,3.569 9.653,3.58 9.73,3.58L9.73,3.58Z" style="fill:white;fill-rule:nonzero;"/>
        <path d="M11.394,1.676L11.59,1.676L11.59,2.056C11.659,1.936 11.753,1.835 11.87,1.752C11.987,1.669 12.139,1.628 12.326,1.628C12.454,1.628 12.569,1.649 12.67,1.69C12.771,1.731 12.857,1.789 12.928,1.864C12.999,1.939 13.052,2.027 13.088,2.13C13.124,2.233 13.142,2.345 13.142,2.468L13.142,3.716L12.946,3.716L12.946,2.504C12.946,2.293 12.89,2.125 12.778,1.998C12.666,1.871 12.506,1.808 12.298,1.808C12.197,1.808 12.103,1.826 12.018,1.862C11.933,1.898 11.858,1.948 11.794,2.012C11.73,2.076 11.68,2.153 11.644,2.242C11.608,2.331 11.59,2.429 11.59,2.536L11.59,3.716L11.394,3.716L11.394,1.676L11.394,1.676Z" style="fill:white;fill-rule:nonzero;"/>
        <path d="M14.706,3.764C14.583,3.764 14.463,3.74 14.344,3.692C14.225,3.644 14.119,3.575 14.026,3.484C13.933,3.393 13.857,3.282 13.8,3.15C13.743,3.018 13.714,2.869 13.714,2.704L13.714,2.696C13.714,2.531 13.743,2.382 13.8,2.25C13.857,2.118 13.933,2.006 14.026,1.914C14.119,1.822 14.225,1.751 14.344,1.702C14.463,1.653 14.583,1.628 14.706,1.628C14.807,1.628 14.901,1.641 14.986,1.668C15.071,1.695 15.148,1.731 15.216,1.776C15.284,1.821 15.345,1.873 15.4,1.932C15.455,1.991 15.503,2.052 15.546,2.116L15.546,0.796L15.742,0.796L15.742,3.716L15.546,3.716L15.546,3.26C15.501,3.327 15.451,3.391 15.396,3.452C15.341,3.513 15.28,3.567 15.212,3.612C15.144,3.657 15.068,3.694 14.984,3.722C14.9,3.75 14.807,3.764 14.706,3.764L14.706,3.764ZM14.726,3.576C14.833,3.576 14.936,3.555 15.036,3.512C15.136,3.469 15.225,3.409 15.302,3.332C15.379,3.255 15.441,3.163 15.488,3.056C15.535,2.949 15.558,2.831 15.558,2.7L15.558,2.692C15.558,2.561 15.535,2.442 15.488,2.334C15.441,2.226 15.379,2.134 15.302,2.058C15.225,1.982 15.136,1.923 15.036,1.88C14.936,1.837 14.833,1.816 14.726,1.816C14.614,1.816 14.509,1.836 14.412,1.876C14.315,1.916 14.23,1.973 14.158,2.048C14.086,2.123 14.029,2.214 13.988,2.322C13.947,2.43 13.926,2.552 13.926,2.688L13.926,2.696C13.926,2.829 13.947,2.951 13.99,3.06C14.033,3.169 14.091,3.262 14.164,3.338C14.237,3.414 14.323,3.473 14.42,3.514C14.517,3.555 14.619,3.576 14.726,3.576L14.726,3.576Z" style="fill:white;fill-rule:nonzero;"/>
        <rect x="16.514" y="0.796" width="0.196" height="2.92" style="fill:white;"/>
        <path d="M18.342,3.764C18.209,3.764 18.081,3.739 17.96,3.688C17.839,3.637 17.732,3.565 17.64,3.472C17.548,3.379 17.475,3.267 17.422,3.136C17.369,3.005 17.342,2.86 17.342,2.7L17.342,2.692C17.342,2.545 17.367,2.407 17.416,2.278C17.465,2.149 17.533,2.036 17.62,1.94C17.707,1.844 17.809,1.768 17.926,1.712C18.043,1.656 18.171,1.628 18.31,1.628C18.454,1.628 18.583,1.655 18.698,1.71C18.813,1.765 18.911,1.84 18.992,1.936C19.073,2.032 19.136,2.145 19.18,2.274C19.224,2.403 19.246,2.544 19.246,2.696C19.246,2.715 19.246,2.729 19.246,2.738C19.246,2.747 19.245,2.76 19.242,2.776L17.55,2.776C17.558,2.904 17.586,3.017 17.634,3.116C17.682,3.215 17.742,3.299 17.814,3.368C17.886,3.437 17.968,3.49 18.06,3.526C18.152,3.562 18.249,3.58 18.35,3.58C18.51,3.58 18.645,3.549 18.756,3.488C18.867,3.427 18.965,3.351 19.05,3.26L19.186,3.38C19.082,3.492 18.964,3.584 18.832,3.656C18.7,3.728 18.537,3.764 18.342,3.764L18.342,3.764ZM19.034,2.6C19.026,2.496 19.005,2.397 18.972,2.302C18.939,2.207 18.892,2.123 18.832,2.05C18.772,1.977 18.698,1.918 18.61,1.874C18.522,1.83 18.419,1.808 18.302,1.808C18.201,1.808 18.106,1.828 18.018,1.868C17.93,1.908 17.853,1.963 17.788,2.034C17.723,2.105 17.669,2.189 17.626,2.286C17.583,2.383 17.558,2.488 17.55,2.6L19.034,2.6Z" style="fill:white;fill-rule:nonzero;"/>
        <path d="M19.818,1.676L20.014,1.676L20.014,2.256C20.054,2.165 20.105,2.081 20.166,2.004C20.227,1.927 20.297,1.861 20.374,1.806C20.451,1.751 20.536,1.71 20.628,1.682C20.72,1.654 20.817,1.641 20.918,1.644L20.918,1.86L20.898,1.86C20.781,1.86 20.669,1.882 20.562,1.926C20.455,1.97 20.361,2.035 20.28,2.122C20.199,2.209 20.134,2.315 20.086,2.442C20.038,2.569 20.014,2.715 20.014,2.88L20.014,3.716L19.818,3.716L19.818,1.676L19.818,1.676Z" style="fill:white;fill-rule:nonzero;"/>
    </g>
    <circle cx="2.319" cy="2.319" r="2.319" style="fill:white;"/>
    <path d="M2.318,0.87C2.273,0.87 2.245,0.897 2.224,0.936C2.223,0.939 1.072,3.577 1.072,3.577C1.069,3.584 1.068,3.591 1.068,3.598C1.068,3.608 1.07,3.618 1.076,3.627C1.086,3.642 1.102,3.651 1.12,3.651L2.163,3.651C2.191,3.651 2.214,3.628 2.215,3.6L2.319,0.989L2.423,3.6C2.424,3.628 2.447,3.651 2.475,3.651L3.518,3.651C3.536,3.651 3.552,3.642 3.562,3.627C3.568,3.618 3.57,3.608 3.57,3.598C3.57,3.591 3.569,3.584 3.566,3.577L2.427,0.965C2.408,0.915 2.373,0.87 2.318,0.87L2.318,0.87Z" style="fill-rule:nonzero;"/>
</svg>
